img/sustainble-website-tab-top.svg

<svg width="256" height="256" viewBox="0 0 256 256" fill="none" xmlns="http://www.w3.org/2000/svg">
<path d="M48.8831 48.3862C48.8831 33.2958 39.3299 21 23.7991 21C8.32408 21 0 33.3517 0 48.3862V53.1369H48.8831V48.3862Z" fill="#6394AB" fill-opacity="0.5"/>
<g style="mix-blend-mode:multiply">
<path d="M42.4189 49.1965V129.164C42.4189 188.031 90.2354 235.792 149.171 235.792C208.106 235.792 255.922 188.031 255.922 129.164V49.1965C255.922 33.6596 242.845 21 226.887 21H17.7041C33.2013 21.633 42.4189 34.0624 42.4189 49.1965Z" fill="#6394AB" fill-opacity="0.2"/>
</g>
<path d="M48.9589 48.3862V124.588C48.9589 181.764 95.3279 228.153 152.479 228.153C209.63 228.153 256 181.764 256 124.588V48.3862C256 33.2958 243.318 21 227.843 21H24.9922C40.0202 21.6148 48.9589 33.6871 48.9589 48.3862Z" fill="white"/>
<path d="M49.4589 124.588V48.3862C49.4589 35.665 42.8347 24.7977 31.34 21.5H227.843C243.055 21.5 255.5 33.5854 255.5 48.3862V124.588C255.5 181.488 209.354 227.653 152.479 227.653C95.6042 227.653 49.4589 181.488 49.4589 124.588Z" stroke="#6394AB" stroke-opacity="0.2"/>
</svg>

<svg width="256" height="256" fill="none" xmlns="http://www.w3.org/2000/svg"><path d="M48.883 48.386C48.883 33.296 39.33 21 23.8 21 8.324 21 0 33.352 0 48.386v4.75h48.883v-4.75z" fill="#6394AB" fill-opacity=".5"/><path d="M42.419 49.197v79.967c0 58.867 47.816 106.628 106.752 106.628 58.935 0 106.751-47.761 106.751-106.628V49.197C255.922 33.66 242.845 21 226.887 21H17.704c15.497.633 24.715 13.062 24.715 28.197z" fill="#6394AB" fill-opacity=".2"/><path d="M48.959 48.386v76.202c0 57.176 46.369 103.565 103.52 103.565C209.63 228.153 256 181.764 256 124.588V48.386C256 33.296 243.318 21 227.843 21H24.993c15.027.615 23.966 12.687 23.966 27.386z" fill="#fff"/><path d="M49.459 124.588V48.386c0-12.721-6.624-23.588-18.119-26.886h196.503c15.212 0 27.657 12.085 27.657 26.886v76.202c0 56.9-46.146 103.065-103.021 103.065s-103.02-46.165-103.02-103.065z" stroke="#6394AB" stroke-opacity=".2"/></svg>
